<?xml version="1.0" encoding="UTF-8"?>
<map version="1.10" tiledversion="1.12.1" orientation="orthogonal" renderorder="right-down" width="20" height="15" tilewidth="64" tileheight="64" infinite="0" nextlayerid="6" nextobjectid="1">
 <tileset firstgid="1" source="Terreno.tsx"/>
 <tileset firstgid="55" source="Agua-Fundo.tsx"/>
 <tileset firstgid="56" source="Sombra-fundo.tsx"/>
 <tileset firstgid="65" source="Efeitos-de-agua.tsx"/>
 <layer id="5" name="Agua-fundo" width="20" height="15">
  <data encoding="csv">
55,55,55,55,55,55,55,55,55,55,55,55,55,55,55,55,0,0,0,0,
55,55,55,55,55,55,55,55,55,55,55,55,55,55,55,55,0,0,0,0,
55,55,71,71,71,71,71,71,71,71,71,71,83,83,55,55,0,0,0,0,
55,55,71,60,0,0,0,0,0,0,0,0,0,83,55,55,0,0,0,0,
55,55,71,60,0,0,0,0,0,0,0,0,0,83,55,55,0,0,0,0,
55,55,60,60,0,60,60,60,60,60,0,0,0,83,55,55,0,0,0,0,
55,55,10,10,60,0,0,0,0,0,0,0,0,83,55,55,0,0,0,0,
55,55,55,0,0,0,0,0,0,0,0,0,0,83,55,55,0,0,0,0,
55,55,55,0,0,0,0,0,0,0,0,0,0,83,55,55,0,0,0,0,
55,55,55,0,0,0,0,0,0,0,0,0,0,83,55,55,0,0,0,0,
55,55,0,0,0,0,0,0,0,60,60,60,60,83,55,55,0,0,0,0,
55,55,65,65,65,65,65,65,65,65,65,65,65,83,55,55,0,0,0,0,
55,55,55,55,55,55,55,55,55,55,55,55,55,55,55,55,0,0,0,0,
55,55,55,55,55,55,55,55,55,55,55,55,55,55,55,55,0,0,0,0,
0,0,0,0,0,0,0,0,0,0,0,0,0,0,0,0,0,0,0,0
</data>
 </layer>
 <layer id="1" name="Terreno-base" width="20" height="15">
  <data encoding="csv">
0,0,0,0,0,0,0,0,0,0,0,0,0,0,0,0,0,0,0,0,
0,0,0,0,0,0,0,0,0,0,0,0,0,0,0,0,0,0,0,0,
0,0,0,0,0,0,0,0,0,0,0,0,0,0,0,0,0,0,0,0,
0,0,0,0,0,0,0,0,0,0,0,0,0,0,0,0,0,0,0,0,
0,0,0,0,0,0,0,0,0,0,0,0,0,0,0,0,0,0,0,0,
0,0,0,0,60,60,60,60,60,60,60,0,0,0,0,0,0,0,0,0,
0,0,60,60,60,11,11,11,11,11,60,0,0,0,0,0,0,0,0,0,
0,0,10,11,11,11,11,11,11,11,60,0,0,0,0,0,0,0,0,0,
0,0,10,11,11,11,11,11,11,11,60,0,0,0,0,0,0,0,0,0,
0,0,10,11,11,11,11,11,11,11,0,0,0,0,0,0,0,0,0,0,
0,0,10,11,11,11,11,11,11,60,60,60,60,60,0,0,0,0,0,0,
0,0,19,20,20,20,20,20,20,21,0,0,0,0,0,0,0,0,0,0,
0,0,0,0,0,0,0,0,0,0,0,0,0,0,0,0,0,0,0,0,
0,0,0,0,0,0,0,0,0,0,0,0,0,0,0,0,0,0,0,0,
0,0,0,0,0,0,0,0,0,0,0,0,0,0,0,0,0,0,0,0
</data>
 </layer>
 <layer id="4" name="Terreno-elevado" width="20" height="15">
  <data encoding="csv">
0,0,0,0,0,0,0,0,0,0,0,0,0,0,0,0,0,0,0,0,
0,0,0,0,0,0,0,0,0,0,0,0,0,0,0,0,0,0,0,0,
0,0,6,7,7,7,7,7,7,7,7,7,7,8,0,0,0,0,0,0,
0,0,15,16,16,16,16,16,16,16,16,16,16,17,0,0,0,0,0,0,
0,0,24,25,25,25,25,25,25,25,16,16,16,17,0,0,0,0,0,0,
0,0,51,52,52,52,52,52,52,52,15,16,16,17,0,0,0,0,0,0,
0,0,0,0,0,0,0,0,0,0,15,16,16,17,0,0,0,0,0,0,
0,0,0,0,0,0,0,0,0,0,15,16,16,17,0,0,0,0,0,0,
0,0,0,0,0,0,0,0,0,0,15,16,16,17,0,0,0,0,0,0,
0,0,0,0,0,0,0,0,0,0,25,25,25,26,0,0,0,0,0,0,
0,0,0,0,0,0,0,0,0,0,43,43,43,44,0,0,0,0,0,0,
0,0,0,0,0,0,0,0,0,52,52,43,43,44,0,0,0,0,0,0,
0,0,0,0,0,0,0,0,0,0,0,0,0,0,0,0,0,0,0,0,
0,0,0,0,0,0,0,0,0,0,0,0,0,0,0,0,0,0,0,0,
0,0,0,0,0,0,0,0,0,0,0,0,0,0,0,0,0,0,0,0
</data>
 </layer>
 <layer id="3" name="Escada-base" width="20" height="15">
  <data encoding="csv">
0,0,0,0,0,0,0,0,0,0,0,0,0,0,0,0,0,0,0,0,
0,0,0,0,0,0,0,0,0,0,0,0,0,0,0,0,0,0,0,0,
0,0,0,0,0,0,0,0,0,0,0,0,0,0,0,0,0,0,0,0,
0,0,0,0,0,0,0,0,0,0,0,0,0,0,0,0,0,0,0,0,
0,0,10,11,0,0,0,0,0,0,0,0,0,0,0,0,0,0,0,0,
0,0,19,20,40,0,0,0,0,0,0,0,0,0,0,0,0,0,0,0,
0,0,42,52,49,0,0,0,0,0,0,0,0,0,0,0,0,0,0,0,
0,0,0,0,0,0,0,0,0,0,0,0,0,0,0,0,0,0,0,0,
0,0,0,0,0,0,0,0,0,0,0,0,0,0,0,0,0,0,0,0,
0,0,0,0,0,0,0,0,0,37,0,0,0,0,0,0,0,0,0,0,
0,0,0,0,0,0,0,0,37,46,0,0,0,0,0,0,0,0,0,0,
0,0,0,0,0,0,0,0,46,43,43,0,0,0,0,0,0,0,0,0,
0,0,0,0,0,0,0,0,0,0,0,0,0,0,0,0,0,0,0,0,
0,0,0,0,0,0,0,0,0,0,0,0,0,0,0,0,0,0,0,0,
0,0,0,0,0,0,0,0,0,0,0,0,0,0,0,0,0,0,0,0
</data>
 </layer>
</map>
